X:1
T:D'où vient cela.
T:D'où vient cela.
T:Claudin de Sermisy
C:Claudin de Sermisy
%%score [ 1 [ 2 3 ] 4 ]
L:1/8
Q:1/4=120
M:2/2
K:F
V:1 treble nm="Soprano" snm="S"
V:2 treble-8 nm="Tenor 1" snm="T 1"
V:3 treble-8 nm="Tenor 2" snm="T 2"
V:4 bass nm="Bass" snm="B"
V:1
 G4 G4 |: G4 ^F4 | z2 F2 G2 A2 | B2 c3 B B2- | B2 A2 B4 | z2 B2 B4 | c4 A2 A2 | B2 c2 d3 c | %8
w: D'où vient|ce- la,|bel- le, je|vous sup- * *|* * ply,|que plus|à moy ne|vous me re- *|
w: |se- ray|de tris- tes-|se rem- * *|* * ply,|jus- ques|à tant qu'au|vray le me _|
 B2 A3 G G2- | G2 ^F2 G4 |1 z2 G2 G4 :|2 G2 ^F2 G2 B2 || B4 c4 | d4 z2 B2 | B2 B2 A3 G | %15
w: * com- * man-|* * dez,|tous- jours|* * * je|croy que|plus, d'a-|my ne de- *|
w: _ man- * *|||* * dez, _|_ _|||
 AB c3 B B2- | B2 A2 B4 | z2 G2 G4 | G4 ^F4 |"^-natural" z2 F2 G2 A2 | B2 A3 G G2- | G2 ^F2 G4 |: %22
w: * * man- * *|* * dez,|ou mau-|vais bruit|de moy on|vous re- * vel-|* * le|
w: |||||||
 z2 B2 B4 | c4 A2 A2 | B2 c2 d3 c | B2 A3 G G2- |1 G2 ^F2 G4 :|2 G2 ^F2 G4- || G8 |] %29
w: ou vos-|tre coeur a|fait a- mour _|_ nou- * vel-|* * le,|* * le.|_|
w: |||||||
V:2
 d4 d4 |: _e4 d4 | z2 d2 d2 e2 | f2 g3 fde | f4 d2 d2 | d2 d2 G2 g2 | g2 g2 f4- | f2 e2 d4 | %8
w: D'où vient|ce- la,|bel- le, je|vous sup- * * *|* ply, que|plus à moy, que|plus à moy|_ ne me|
w: |se- ray|de tris- tes-|se rem- * * *|* ply, jus-|ques à tant, jus-|ques à tant|_ qu'au vray|
 f4 _e2 c2 | d8 |1 z2 d2 d4 :|2 d4 z2 g2 || f2 g2 a4- | a4 z2 g2 | g2 g2 f4- | f2 g4 fe | f4 d4 | %17
w: re- com- man-|dez,|tous- jours|* je|croy que plus,|_ d'a-|my ne de-|* man- * *|* dez,|
w: le me mn-|||dez, *||||||
 z2 _e2 e4 | _e4 d4 | z2 d2 d2 f2 |"^(1)" f2 f4 e2 | d3 c B2 d2 |: d2 d2 G2 g2 | g2 g2 f4- | %24
w: ou mau-|vais bruit|de moy on|vous re- vel-|* * le, ou|vos- tre coeur a|fait a- mour|
w: |||||||
 f2 e2 d4 | f4 _e2 c2 |1 d4 B2 d2 :|2 d4 =B4- || B8 |] %29
w: _ nou- vel-||* le, ou|* le.|_|
w: |||||
V:3
 G4 B4 |: c4 A4 | z2 A2 B2 c2 | d2 _e3 dcB | c4 B4 | z2 d2 d4 | _e4 c2 c2 | d2 e2 f3 e | %8
w: D'où vient|ce- la,|bel- le, je|vous sup- * * *|* ly,|que plus|à moy ne|vous me re- *|
w: |se- ray|de tris- tes-|se rem- * * *|* ply,|jus- ques|à tant qu'au|vray le me- *|
 d2 c3 BAG | A2 A2 G4 |1 z2 G2 B4 :|2 A4 G4 || z2 d2 e4 | f4 d4 | z2 d2 d2 d2 | c2 _e3 dcB | %16
w: * com- * * *|* man- dez,|tous- jours||je croy|que plus|d'a- my ne|de- man- * * *|
w: * man- * * *|||* dez,-|||||
 c4 B4 | z2 B2 B4 | c4 A4 | z2 A2 B2 c2 | d2 c3 BAG | A2 A2 G4 |: z2 d2 d4 | _e4 c2 c2 | %24
w: * dez,|ou mau-|vais bruit|de moy on|vous re- * * *|* vel- le,|ou vos-|tre coeur a|
w: ||||||||
 d2 e2 f3 e | d2 c2 cB AG |1 A4 G4 :|2 A4 G4- || G8 |] %29
w: fait a- mour _|_ nou- vel- * * *|* le,|* le.|_|
w: |||||
V:4
 G,4 G,4 |: C,4 D,4 | z2 D,2 G,2 F,E, | D,2 C,2 G,4 | F,4 B,,4 | z2 G,2 G,4 | C,4 F,3 E, | %7
w: D'où vient|ce- la,|bel- le je _|vous sup- *|* ply,|que plus|à moy _|
w: |se- ray|de tris- tes- *|se rem- *|* ply|jus- ques|à tant qu'au|
 D,2 C,2 B,,2 B,2- | B,2 F,2 G,2 F,_E, | D,4 G,,4 |1 z2 G,2 G,4 :|2 D,4 G,2 G,2 || B,4 A,4 | %13
w: _ ne vous me|_ re- com- * *|man- dez,|tous- jours-|* * je|croy que|
w: vray ne le man-||||* dez, _|_ _|
 D,4 z2 G,2 | G,2 G,2 D,3 E, | F,2 C,2 G,4 | F,4 B,,4 | z2 _E,2 E,4 | C,4 D,4 | z2 D,2 G,2 F,2 | %20
w: plus d'a-|my ne de- *|* man- *|* dez,|ou mau-|vais _|de moy on|
w: |||||||
 B,,2 F,4 G,2 | D,4 G,,4 |: z2 G,2 G,4 | C,4 F,3 E, | D,2 C,2 B,,2 B,2- | B,2 F,2 G,2 _E,2 |1 %26
w: vous re- *|vel- le,|ou vos-|tre coeur _|_ a fait a-|* mour nou- vel-|
w: ||||||
 D,4 G,,4 :|2 D,4 G,,4- || G,,8 |] %29
w: * le,|* le.|_|
w: |||

